build/img/my-comfort-plus-wrong-3.svg

<svg width="159" height="40" viewBox="0 0 159 40" fill="none" xmlns="http://www.w3.org/2000/svg">
<g clip-path="url(#clip0)">
<path d="M46.8813 0.65654C49.5458 0.61181 52.1929 1.09329 54.6694 2.07314C57.1459 3.05299 59.4026 4.51178 61.3092 6.36514C63.1497 8.15354 64.6226 10.2817 65.6456 12.6307C66.6992 15.0602 67.2302 17.6823 67.2043 20.3283C67.2326 22.9746 66.7015 25.5972 65.6456 28.026C64.6236 30.3841 63.1444 32.5185 61.2928 34.3069C59.4411 36.0954 57.2533 37.5028 54.8546 38.4487C52.3254 39.5065 49.6045 40.0346 46.8613 40.0002H31.7539V0.65654H46.8813ZM51.957 31.6262C53.4075 31.0391 54.7156 30.1508 55.7938 29.0205C56.8602 27.8624 57.6945 26.5122 58.2518 25.0424C58.8516 23.5226 59.1502 21.9015 59.131 20.2687C59.1504 18.6229 58.8519 16.9888 58.2518 15.4551C57.6876 14.0185 56.8534 12.7021 55.7938 11.5765C54.7022 10.4621 53.3976 9.57613 51.957 8.97081C50.3472 8.30818 48.6233 7.96364 46.8813 7.95639H39.8272V32.6207H46.8813C48.6257 32.6608 50.358 32.3214 51.957 31.6262Z" fill="#231F20"/>
<path d="M11.99 0C9.61859 0 7.30045 0.699938 5.32871 2.0113C3.35697 3.32267 1.82018 5.18656 0.912688 7.36728C0.00519509 9.548 -0.232246 11.9476 0.230389 14.2626C0.693025 16.5777 1.83496 18.7042 3.51179 20.3732C5.18862 22.0423 7.32503 23.1789 9.65086 23.6394C11.9767 24.0999 14.3875 23.8636 16.5784 22.9603C18.7692 22.057 20.6418 20.5273 21.9593 18.5647C23.2768 16.6021 23.98 14.2948 23.98 11.9344C23.98 8.76917 22.7167 5.73362 20.4682 3.49549C18.2196 1.25737 15.1699 0 11.99 0V0ZM11.99 16.9468C11.0168 16.931 10.0698 16.6304 9.26719 16.0824C8.46457 15.5344 7.84183 14.7632 7.47669 13.8652C7.11154 12.9671 7.02015 11.982 7.21391 11.0326C7.40767 10.0832 7.87802 9.21155 8.56625 8.52651C9.25449 7.84147 10.1301 7.37331 11.084 7.18044C12.0378 6.98758 13.0276 7.07855 13.9298 7.442C14.832 7.80545 15.6068 8.4253 16.1573 9.2242C16.7079 10.0231 17.0099 10.9657 17.0258 11.9344C17.0366 12.5956 16.9137 13.2522 16.6645 13.8652C16.4152 14.4782 16.0447 15.035 15.5749 15.5026C15.1051 15.9702 14.5457 16.3391 13.9298 16.5872C13.314 16.8352 12.6543 16.9575 11.99 16.9468Z" fill="#231F20"/>
<path d="M154 35H82V40H154V35Z" fill="url(#paint0_linear)"/>
<path d="M88.2166 12.9999L92.7106 4.52995L90.9186 12.9999H92.5006L94.6566 2.84995H92.0246L87.7686 11.0819L86.9566 2.84995H84.4646L82.3086 12.9999H83.8906L85.6826 4.52995L86.5786 12.9999H88.2166Z" fill="#151515"/>
<path d="M96.711 8.91195C96.711 6.79795 97.915 3.99795 100.533 3.99795C102.381 3.99795 103.165 5.36995 103.165 6.93795C103.165 9.05195 101.961 11.8519 99.343 11.8519C97.509 11.8519 96.711 10.4799 96.711 8.91195ZM104.803 6.85395C104.803 4.23595 103.263 2.66795 100.743 2.66795C97.047 2.66795 95.087 5.91595 95.087 8.99595C95.087 11.6139 96.627 13.1819 99.147 13.1819C102.843 13.1819 104.803 9.93395 104.803 6.85395Z" fill="#151515"/>
<path d="M111.745 2.47195C113.467 2.47195 114.433 1.67395 114.657 0.595947H113.453C113.383 1.08595 112.823 1.58995 111.801 1.58995C110.849 1.58995 110.401 1.15595 110.401 0.595947H109.267C109.267 1.77195 110.177 2.47195 111.745 2.47195ZM106.887 12.9999L113.677 5.31395L112.039 12.9999H113.607L115.735 2.84995H114.195L107.391 10.5499L109.029 2.84995H107.461L105.333 12.9999H106.887Z" fill="#151515"/>
<path d="M83.9186 28.9999L84.8986 24.4359H86.1726L88.5666 28.9999H90.2606L87.5306 23.7779L92.2066 18.8499H90.2746L86.2986 23.0779H85.1646L86.0466 18.8499H84.4646L82.3366 28.9999H83.9186Z" fill="#151515"/>
<path d="M92.8692 24.9119C92.8692 22.7979 94.0732 19.9979 96.6912 19.9979C98.5392 19.9979 99.3232 21.3699 99.3232 22.9379C99.3232 25.0519 98.1192 27.8519 95.5012 27.8519C93.6672 27.8519 92.8692 26.4799 92.8692 24.9119ZM100.961 22.8539C100.961 20.2359 99.4212 18.6679 96.9012 18.6679C93.2052 18.6679 91.2452 21.9159 91.2452 24.9959C91.2452 27.6139 92.7852 29.1819 95.3052 29.1819C99.0012 29.1819 100.961 25.9339 100.961 22.8539Z" fill="#151515"/>
<path d="M107.371 28.9999L111.865 20.5299L110.073 28.9999H111.655L113.811 18.8499H111.179L106.923 27.0819L106.111 18.8499H103.619L101.463 28.9999H103.045L104.837 20.5299L105.733 28.9999H107.371Z" fill="#151515"/>
<path d="M119.281 29.3779L119.533 28.2719C122.879 28.1179 125.035 25.9759 125.035 23.1899C125.035 21.1879 123.663 19.6619 121.353 19.5499L121.605 18.2899H120.037L119.785 19.5499C116.523 19.7039 114.283 21.7619 114.283 24.5619C114.283 26.5779 115.655 28.0619 117.965 28.1739L117.713 29.3779H119.281ZM118.245 26.8719C116.789 26.7599 115.907 26.0459 115.907 24.4779C115.907 22.3219 117.517 21.0059 119.505 20.8519L118.245 26.8719ZM121.073 20.8519C122.529 20.9779 123.383 21.6639 123.383 23.2319C123.383 25.3459 121.829 26.7179 119.813 26.8719L121.073 20.8519Z" fill="#151515"/>
<path d="M127.609 24.9119C127.609 22.7979 128.813 19.9979 131.431 19.9979C133.279 19.9979 134.063 21.3699 134.063 22.9379C134.063 25.0519 132.859 27.8519 130.241 27.8519C128.407 27.8519 127.609 26.4799 127.609 24.9119ZM135.701 22.8539C135.701 20.2359 134.161 18.6679 131.641 18.6679C127.945 18.6679 125.985 21.9159 125.985 24.9959C125.985 27.6139 127.525 29.1819 130.045 29.1819C133.741 29.1819 135.701 25.9339 135.701 22.8539Z" fill="#151515"/>
<path d="M138.359 18.8499L136.203 28.9999H137.799L138.639 25.0659H140.123C142.923 25.0659 145.135 24.3659 145.135 21.4119C145.135 19.4239 143.497 18.8499 141.439 18.8499H138.359ZM139.675 20.1659H141.215C142.433 20.1659 143.455 20.3619 143.455 21.5519C143.455 23.4139 141.999 23.7219 140.487 23.7219H138.919L139.675 20.1659Z" fill="#151515"/>
<path d="M146.871 28.9999H148.467L150.343 20.2219H153.591L153.885 18.8499H145.779L145.499 20.2219H148.747L146.871 28.9999Z" fill="#151515"/>
</g>
<defs>
<linearGradient id="paint0_linear" x1="82.2154" y1="37.7081" x2="154.001" y2="37.7081" gradientUnits="userSpaceOnUse">
<stop stop-color="#A0B1FF"/>
<stop offset="1" stop-color="#FFDCD6"/>
</linearGradient>
<clipPath id="clip0">
<rect width="159" height="40" fill="white"/>
</clipPath>
</defs>
</svg>

<svg width="159" height="40" viewBox="0 0 159 40" fill="none" xmlns="http://www.w3.org/2000/svg"><g clip-path="url(#clip0)"><path d="M46.881.657a20.247 20.247 0 017.788 1.416 20.173 20.173 0 016.64 4.292 19.71 19.71 0 014.337 6.266 18.881 18.881 0 011.558 7.697 18.801 18.801 0 01-1.558 7.698 19.531 19.531 0 01-4.353 6.28 19.634 19.634 0 01-6.438 4.143A20.066 20.066 0 0146.86 40H31.754V.657H46.88zm5.076 30.97a11.012 11.012 0 003.837-2.607 12.323 12.323 0 002.458-3.978c.6-1.52.898-3.14.879-4.773.02-1.646-.28-3.28-.88-4.814a12.126 12.126 0 00-2.457-3.879 11.733 11.733 0 00-3.837-2.605 13.483 13.483 0 00-5.076-1.015h-7.054v24.665h7.054c1.745.04 3.477-.3 5.076-.995zM11.99 0C9.619 0 7.3.7 5.329 2.011A11.947 11.947 0 00.913 7.367a11.883 11.883 0 00-.683 6.896 11.917 11.917 0 003.282 6.11A12.007 12.007 0 009.65 23.64c2.326.46 4.736.225 6.927-.679a11.979 11.979 0 005.381-4.395 11.895 11.895 0 00-1.49-15.07A12.019 12.019 0 0011.99 0zm0 16.947a4.972 4.972 0 01-2.723-.865 4.937 4.937 0 01-1.79-2.217 4.911 4.911 0 011.09-5.338 4.977 4.977 0 015.364-1.085 4.951 4.951 0 012.226 1.782 4.918 4.918 0 01-.582 6.279 4.958 4.958 0 01-3.585 1.444z" fill="#231F20"/><path d="M154 35H82v5h72v-5z" fill="url(#paint0_linear)"/><path d="M88.217 13l4.494-8.47L90.919 13H92.5l2.156-10.15h-2.632l-4.256 8.232-.812-8.232h-2.492L82.309 13h1.582l1.792-8.47.896 8.47h1.638zm8.494-4.088c0-2.114 1.204-4.914 3.822-4.914 1.848 0 2.632 1.372 2.632 2.94 0 2.114-1.204 4.914-3.822 4.914-1.834 0-2.632-1.372-2.632-2.94zm8.092-2.058c0-2.618-1.54-4.186-4.06-4.186-3.696 0-5.656 3.248-5.656 6.328 0 2.618 1.54 4.186 4.06 4.186 3.696 0 5.656-3.248 5.656-6.328zm6.942-4.382c1.722 0 2.688-.798 2.912-1.876h-1.204c-.07.49-.63.994-1.652.994-.952 0-1.4-.434-1.4-.994h-1.134c0 1.176.91 1.876 2.478 1.876zM106.887 13l6.79-7.686L112.039 13h1.568l2.128-10.15h-1.54l-6.804 7.7 1.638-7.7h-1.568L105.333 13h1.554zM83.919 29l.98-4.564h1.274L88.567 29h1.694l-2.73-5.222 4.676-4.928h-1.932l-3.976 4.228h-1.134l.882-4.228h-1.582L82.337 29h1.582z" fill="#151515"/><path d="M92.87 24.912c0-2.114 1.203-4.914 3.821-4.914 1.848 0 2.632 1.372 2.632 2.94 0 2.114-1.204 4.914-3.822 4.914-1.834 0-2.632-1.372-2.632-2.94zm8.091-2.058c0-2.618-1.54-4.186-4.06-4.186-3.696 0-5.656 3.248-5.656 6.328 0 2.618 1.54 4.186 4.06 4.186 3.696 0 5.656-3.248 5.656-6.328zm6.41 6.146l4.494-8.47-1.792 8.47h1.582l2.156-10.15h-2.632l-4.256 8.232-.812-8.232h-2.492L101.463 29h1.582l1.792-8.47.896 8.47h1.638zm11.91.378l.252-1.106c3.346-.154 5.502-2.296 5.502-5.082 0-2.002-1.372-3.528-3.682-3.64l.252-1.26h-1.568l-.252 1.26c-3.262.154-5.502 2.212-5.502 5.012 0 2.016 1.372 3.5 3.682 3.612l-.252 1.204h1.568zm-1.036-2.506c-1.456-.112-2.338-.826-2.338-2.394 0-2.156 1.61-3.472 3.598-3.626l-1.26 6.02zm2.828-6.02c1.456.126 2.31.812 2.31 2.38 0 2.114-1.554 3.486-3.57 3.64l1.26-6.02zm6.536 4.06c0-2.114 1.204-4.914 3.822-4.914 1.848 0 2.632 1.372 2.632 2.94 0 2.114-1.204 4.914-3.822 4.914-1.834 0-2.632-1.372-2.632-2.94zm8.092-2.058c0-2.618-1.54-4.186-4.06-4.186-3.696 0-5.656 3.248-5.656 6.328 0 2.618 1.54 4.186 4.06 4.186 3.696 0 5.656-3.248 5.656-6.328zm2.658-4.004L136.203 29h1.596l.84-3.934h1.484c2.8 0 5.012-.7 5.012-3.654 0-1.988-1.638-2.562-3.696-2.562h-3.08zm1.316 1.316h1.54c1.218 0 2.24.196 2.24 1.386 0 1.862-1.456 2.17-2.968 2.17h-1.568l.756-3.556zM146.871 29h1.596l1.876-8.778h3.248l.294-1.372h-8.106l-.28 1.372h3.248L146.871 29z" fill="#151515"/></g><defs><linearGradient id="paint0_linear" x1="82.215" y1="37.708" x2="154.001" y2="37.708" gradientUnits="userSpaceOnUse"><stop stop-color="#A0B1FF"/><stop offset="1" stop-color="#FFDCD6"/></linearGradient><clipPath id="clip0"><path fill="#fff" d="M0 0h159v40H0z"/></clipPath></defs></svg>
